X:1
T:Title
%%score { ( 1 4 ) | ( 2 3 ) }
L:1/8
M:4/4
K:Eb
V:1 treble nm="Grand Piano"
V:4 treble 
V:2 bass 
V:3 bass 
V:1
 z4 z2[Q:1/4=100] EF | GGGG G2 [FA]2 | [GB]6 [GB][Ge] | [Ad][Ad][FA][FA] [DAc]2 .[DAd]2 | %4
 [EGB]6 EF | GGGG G2 [FA]2 | [GB]6 Bc | d3 d e2 d2 |[M:3/4] c4 [DB]2 |[M:1/4] cd | %10
[M:4/4] [Ge]2 G>_G =G2 [GB][Ac] | B-[GB-][GB-][GB] [FA]2 [Fd][Ge] | %12
 [DAf]2 [DFA]>[D=EG] [DFA]2 .[DAc]2 | c-[Ac-][Ac-][Ac] [GB]2 [EG][GB] | [Ge]2 [Ae][Be] e2 dc | %15
 B4 z4 | [B,EG]2 [B,GB][B,FA] [B,EG]2 [A,DF]2 |[M:3/4] [G,E]6 |] %18
V:2
 z4 z2 [E,G,][E,A,E] | [E,B,E][E,B,E][E,B,E][E,B,E] [E,B,E]2 [E,B,]2 | [E,E]6 [E,E][E,B,] | %3
 [B,,B,][B,,B,][B,,B,][B,,B,] B,,2 z[K:treble] c | E,6 [E,G,][E,A,E] | %5
 [E,B,E][E,B,E][E,B,E][E,B,E] [E,B,E]2 [E,B,]2 | [E,E]6 [E,B,]2 | %7
 [F,B,F]3 [F,B,F] [F,CF]2 [F,B,F]2 |[M:3/4] [F,=A,E]4 [B,,B,]2 |[M:1/4][K:treble] [B,A][B,A] | %10
[M:4/4][K:bass] [E,B,]2 [E,B,E]>[E,=A,E] [E,B,E]2 [E,B,]2 | %11
 [B,,B,][B,,B,][B,,B,][B,,B,] [B,,B,]2 [B,,B,][B,,B,] | B,,2 B,,>B,, B,,2 z[K:treble] d | %13
 [E,E][E,E][E,E][E,E] [E,E]2 [E,B,][E,E] | [E,B,]2 [F,B,][K:treble][G,_D] [A,CA]2 [A,EA]2 | %15
 [E,E][E,E][E,E][E,E] [E,B,]2 G,,A,, | B,,2 B,,B,, B,,2 B,,2 |[M:3/4] E,6 |] %18
V:3
 x8 | x8 | x8 | z4 z2 B,,2[K:treble] | x8 | x8 | x8 | x8 |[M:3/4] x6 |[M:1/4][K:treble] x2 | %10
[M:4/4][K:bass] x8 | x8 | z4 z2 B,,2[K:treble] | x8 | x3[K:treble] x5 | x8 | x8 |[M:3/4] x6 |] %18
V:4
 x8 | x8 | x8 | x8 | x8 | x8 | z4 z2 G2 | x8 |[M:3/4] x6 |[M:1/4] x2 |[M:4/4] x8 | .G2 z2 z4 | x8 | %13
 .A2 z2 z4 | x8 | GGGG [Ge]2 [B,E][CEF] | x8 |[M:3/4] x6 |] %18

